!!!COM:	Josquin des Pres
**kern	**kern
*part2	*part1
*staff2	*staff1
*clefGv2	*clefGv2
*k[]	*k[]
*M2/1	*M2/1
=1-	=1-
1A	0A
[1c	.
=2	=2
2c]	(>0c
2B	.
[1A	.
=3	=3
2A]	1c)
2F	.
1G	1B
=4	=4
1F	(<0A
2.c	.
4d	.
=5	=5
2e	1A)
2.f	.
.	1F
4e	.
[2d	.
=6	=6
4d]	0G
4c	.
4B	.
4A	.
1B	.
=7	=7
0A	0F
=8	=8
1r	1.c
1A	.
.	2d
=9	=9
2G	1e
2.A	.
.	(>1f
4G	.
4F	.
4E	.
=10	=10
1.D	2f)
.	2e
.	(>1d
2E	.
=11	=11
1F	2d)
.	2c
2G	2B
[2A	2A
=12	=12
2A]	0B
2G	.
1d	.
=13	=13
0c	0A
==	==
*-	*-
!!!RDF**kern: > = above
!!!RDF**kern: < = below
